X:194
T: Calleen Dass or Pretty Maid
T: Cailin Deas (An)
N: O'Farrell's Pocket Companion v.3 (Sky ed. p.100)
N: "Irish"
M: 3/4
L: 1/8
Q: 120 % "slow"
K: G
D| G/F/E/D/ G>AB>A| G2 A>G E2| G/F/E/D/ G>A BA/G/|
A2 Bd He d/e/f/| g>f ed/B/ dB/A/| G2 A>G E>A|
G>D G>A Be/d/|B2 A2 G/d/e/f/|g/f/e/d/ e/d/c/B/ dB/A/|
G2 A>G E>A| G/F/E/D/ G>A Be/d/| B2 A>G G2 ||
